X:1
T:You Stepped Out Of A Dream
C:Nacio Herb Brown
L:1/4
M:4/4
I:linebreak $
K:C
V:1 treble nm="Voice" snm="Ch"
V:1
"Cmaj7" E4- | E E (3E E E |"C#7" F4- | F2 (3F F F |"Eb7" G3/2 G/ G2- |$"Eb7" G G (3G F _E | %6
w: You|* stepped out of a|dread.|* You are too|won- der- ful|* to be what you|
"G#maj7" c4- | c2 (3c c c |"Gm7" c3/2 C/ C2- |"C7" C2 (3c c c |$"Fmaj7" c3/2 C/ C2- | C2 (3c c c | %12
w: seem.|* Could there be|eyes like your?|* Could there be|lips like your?|* Could there be|
"Am7" c3/2 C/ C2- |"D7" C2 (3C D C |$"Ebm7""G#7" _E4 |"Dm9" E3"G13" z |"Cmaj7" E4- | E E (3E E E | %18
w: smiles like your?|* hon- est and|true-|ly?-|You|* stepped out of a|
"C#7" F4- | F2 (3F F F |$"Eb7" (3G G G G2- | G G (3G F _E |"F#9#11" c4 |"F7" z c c c | %24
w: cloud.|* I want to|take you a- way,|* a- way from the|crowd,|and have you|
"Dm7b5" c2 _B ^G |"G7" G3 ^G |$"Cmaj7" (3B B B B2- |"Em7" B2"Am7" (3d c E |"Dm7" G4- | %29
w: all to my-|self a-|lone and a- part|* out of a|dream,|
"G7" G2 (3G G G |"G" G4 | %31
w: * safe in my|heart.|
